build/img/svg-sprite/development.svg

<svg width="75" height="75" viewBox="0 0 75 75" fill="none" xmlns="http://www.w3.org/2000/svg">
<g clip-path="url(#clip0)">
<path d="M8.63685 27.4726C8.85086 27.6866 9.13181 27.7942 9.41277 27.7942C9.69372 27.7942 9.97467 27.6872 10.1892 27.4726C10.6178 27.0441 10.6178 26.3488 10.1892 25.9202L7.52391 23.2549L10.1892 20.5901C10.6178 20.161 10.6178 19.4663 10.1892 19.0377C9.76067 18.6092 9.06544 18.6092 8.63685 19.0377L5.1956 22.479C4.98961 22.685 4.87402 22.9642 4.87402 23.2549C4.87402 23.5462 4.98961 23.8254 5.1956 24.0314L8.63685 27.4726Z" fill="#EF8B54"/>
<path d="M19.5294 23.255L16.8641 25.9203C16.4355 26.3489 16.4355 27.0441 16.8647 27.4727C17.0787 27.6867 17.3596 27.7943 17.6406 27.7943C17.9215 27.7943 18.2025 27.6867 18.4165 27.4727L21.8583 24.0309C22.2869 23.6023 22.2869 22.9071 21.8583 22.4791L18.4165 19.0373C17.9879 18.6087 17.2932 18.6087 16.8647 19.0373C16.4355 19.4664 16.4355 20.1611 16.8647 20.5897L19.5294 23.255Z" fill="#EF8B54"/>
<path d="M11.8904 27.7182C12.022 27.7697 12.1582 27.7943 12.2915 27.7943C12.7298 27.7943 13.1436 27.53 13.3135 27.0979L16.0172 20.2149C16.2392 19.6507 15.9611 19.0138 15.3969 18.7918C14.8333 18.5703 14.1958 18.8479 13.9744 19.4121L11.2701 26.2951C11.0487 26.8593 11.3262 27.4968 11.8904 27.7182Z" fill="#EF8B54"/>
<path d="M6.59298 34.2339H13.9876C14.5936 34.2339 15.0851 33.7424 15.0851 33.1358C15.0851 32.5299 14.5936 32.0383 13.9876 32.0383H6.59298C5.98644 32.0383 5.49548 32.5299 5.49548 33.1358C5.49548 33.7424 5.98644 34.2339 6.59298 34.2339Z" fill="#EF8B54"/>
<path d="M31.0187 32.0383H18.0181C17.4122 32.0383 16.9207 32.5299 16.9207 33.1358C16.9207 33.7424 17.4122 34.2339 18.0181 34.2339H31.0187C31.6252 34.2339 32.1168 33.7424 32.1168 33.1358C32.1168 32.5299 31.6252 32.0383 31.0187 32.0383Z" fill="#EF8B54"/>
<path d="M6.59298 38.8635H9.74298C10.3489 38.8635 10.8405 38.372 10.8405 37.7654C10.8405 37.1595 10.3489 36.668 9.74298 36.668H6.59298C5.98644 36.668 5.49548 37.1595 5.49548 37.7654C5.49548 38.372 5.98644 38.8635 6.59298 38.8635Z" fill="#EF8B54"/>
<path d="M27.0031 36.668C26.3966 36.668 25.9056 37.1595 25.9056 37.7654C25.9056 38.372 26.3966 38.8635 27.0031 38.8635H28.9211C29.5277 38.8635 30.0192 38.372 30.0192 37.7654C30.0192 37.1595 29.5277 36.668 28.9211 36.668H27.0031Z" fill="#EF8B54"/>
<path d="M24.114 37.7654C24.114 37.1595 23.6225 36.668 23.0166 36.668H13.5946C12.9881 36.668 12.4971 37.1595 12.4971 37.7654C12.4971 38.372 12.9881 38.8635 13.5946 38.8635H23.0166C23.6225 38.8635 24.114 38.372 24.114 37.7654Z" fill="#EF8B54"/>
<path d="M31.3043 37.7654C31.3043 38.372 31.7958 38.8635 32.4018 38.8635H35.9947C36.6012 38.8635 37.0927 38.372 37.0927 37.7654C37.0927 37.1595 36.6012 36.668 35.9947 36.668H32.4018C31.7958 36.668 31.3043 37.1595 31.3043 37.7654Z" fill="#EF8B54"/>
<path d="M25.3266 24.1355H29.1163C29.7228 24.1355 30.2144 23.644 30.2144 23.0374C30.2144 22.4315 29.7228 21.9399 29.1163 21.9399H25.3266C24.72 21.9399 24.2285 22.4315 24.2285 23.0374C24.2285 23.644 24.72 24.1355 25.3266 24.1355Z" fill="#EF8B54"/>
<path d="M33.3609 24.1355H56.4844C57.0909 24.1355 57.5819 23.644 57.5819 23.0374C57.5819 22.4315 57.0909 21.9399 56.4844 21.9399H33.3609C32.7544 21.9399 32.2628 22.4315 32.2628 23.0374C32.2628 23.644 32.7544 24.1355 33.3609 24.1355Z" fill="#EF8B54"/>
<path d="M52.9721 26.7693H43.6051C42.9991 26.7693 42.5076 27.2608 42.5076 27.8674C42.5076 28.4733 42.9991 28.9648 43.6051 28.9648H52.9721C53.5781 28.9648 54.0696 28.4733 54.0696 27.8674C54.0696 27.2608 53.5781 26.7693 52.9721 26.7693Z" fill="#EF8B54"/>
<path d="M40.0927 26.7693H36.8729C36.2663 26.7693 35.7754 27.2608 35.7754 27.8674C35.7754 28.4733 36.2663 28.9648 36.8729 28.9648H40.0927C40.6992 28.9648 41.1902 28.4733 41.1902 27.8674C41.1902 27.2608 40.6992 26.7693 40.0927 26.7693Z" fill="#EF8B54"/>
<path d="M25.3266 28.9648H33.2144C33.8204 28.9648 34.3119 28.4733 34.3119 27.8674C34.3119 27.2608 33.8204 26.7693 33.2144 26.7693H25.3266C24.72 26.7693 24.2285 27.2608 24.2285 27.8674C24.2285 28.4733 24.72 28.9648 25.3266 28.9648Z" fill="#EF8B54"/>
<path d="M23.0301 41.2588H15.6361C15.0295 41.2588 14.538 41.7503 14.538 42.3563C14.538 42.9622 15.0295 43.4538 15.6361 43.4538H23.0301C23.6361 43.4538 24.1276 42.9622 24.1276 42.3563C24.1276 41.7503 23.6361 41.2588 23.0301 41.2588Z" fill="#EF8B54"/>
<path d="M12.2738 41.2588H6.59298C5.98644 41.2588 5.49548 41.7503 5.49548 42.3563C5.49548 42.9622 5.98644 43.4538 6.59298 43.4538H12.2738C12.8804 43.4538 13.3713 42.9622 13.3713 42.3563C13.3713 41.7503 12.8804 41.2588 12.2738 41.2588Z" fill="#EF8B54"/>
<path d="M36.4342 41.2588H26.7748C26.1682 41.2588 25.6773 41.7503 25.6773 42.3563C25.6773 42.9622 26.1682 43.4538 26.7748 43.4538H36.4342C37.0402 43.4538 37.5317 42.9622 37.5317 42.3563C37.5317 41.7503 37.0402 41.2588 36.4342 41.2588Z" fill="#EF8B54"/>
<path d="M49.4971 35.6204H44.215C43.609 35.6204 43.1175 36.1119 43.1175 36.7179C43.1175 37.3244 43.609 37.8159 44.215 37.8159H49.4971C50.1036 37.8159 50.5946 37.3244 50.5946 36.7179C50.5946 36.1119 50.1036 35.6204 49.4971 35.6204Z" fill="#EF8B54"/>
<path d="M58.6626 37.8159H66.1191C66.7256 37.8159 67.2171 37.3244 67.2171 36.7179C67.2171 36.1119 66.7256 35.6204 66.1191 35.6204H58.6626C58.0561 35.6204 57.5652 36.1119 57.5652 36.7179C57.5652 37.3244 58.0567 37.8159 58.6626 37.8159Z" fill="#EF8B54"/>
<path d="M54.9341 35.6204H53.2255C52.619 35.6204 52.1274 36.1119 52.1274 36.7179C52.1274 37.3244 52.619 37.8159 53.2255 37.8159H54.9341C55.5407 37.8159 56.0316 37.3244 56.0316 36.7179C56.0316 36.1119 55.5407 35.6204 54.9341 35.6204Z" fill="#EF8B54"/>
<path d="M44.215 49.7773H49.4971C50.1036 49.7773 50.5946 49.2863 50.5946 48.6798C50.5946 48.0738 50.1036 47.5823 49.4971 47.5823H44.215C43.609 47.5823 43.1175 48.0738 43.1175 48.6798C43.1175 49.2863 43.609 49.7773 44.215 49.7773Z" fill="#EF8B54"/>
<path d="M58.6626 49.7773H66.1191C66.7256 49.7773 67.2171 49.2863 67.2171 48.6798C67.2171 48.0738 66.7256 47.5823 66.1191 47.5823H58.6626C58.0561 47.5823 57.5652 48.0738 57.5652 48.6798C57.5652 49.2863 58.0567 49.7773 58.6626 49.7773Z" fill="#EF8B54"/>
<path d="M53.2256 49.7773H54.9342C55.5408 49.7773 56.0323 49.2863 56.0323 48.6798C56.0323 48.0738 55.5408 47.5823 54.9342 47.5823H53.2256C52.6191 47.5823 52.1281 48.0738 52.1281 48.6798C52.1281 49.2863 52.6191 49.7773 53.2256 49.7773Z" fill="#EF8B54"/>
<path d="M49.4971 59.5442H44.215C43.609 59.5442 43.1175 60.0357 43.1175 60.6417C43.1175 61.2476 43.609 61.7392 44.215 61.7392H49.4971C50.1036 61.7392 50.5946 61.2476 50.5946 60.6417C50.5946 60.0357 50.1036 59.5442 49.4971 59.5442Z" fill="#EF8B54"/>
<path d="M66.1191 59.5442H58.6626C58.0561 59.5442 57.5652 60.0357 57.5652 60.6417C57.5652 61.2476 58.0561 61.7392 58.6626 61.7392H66.1191C66.7256 61.7392 67.2171 61.2476 67.2171 60.6417C67.2171 60.0357 66.7256 59.5442 66.1191 59.5442Z" fill="#EF8B54"/>
<path d="M54.9341 59.5442H53.2255C52.619 59.5442 52.1274 60.0357 52.1274 60.6417C52.1274 61.2476 52.619 61.7392 53.2255 61.7392H54.9341C55.5407 61.7392 56.0316 61.2476 56.0316 60.6417C56.0316 60.0357 55.5407 59.5442 54.9341 59.5442Z" fill="#EF8B54"/>
<path d="M70.1697 0.14624H4.83114C2.16752 0.14624 0 2.31319 0 4.97738V58.0879C0 60.7515 2.16752 62.9185 4.83114 62.9185H8.9619C9.56787 62.9185 10.0594 62.4275 10.0594 61.821C10.0594 61.215 9.56787 60.7235 8.9619 60.7235H4.83114C3.37774 60.7235 2.19556 59.5413 2.19556 58.0879V53.924H42.1854V55.8157H41.315C40.1243 55.8157 39.1561 56.7838 39.1561 57.9746V60.7235H15.6355C15.0296 60.7235 14.5381 61.215 14.5381 61.821C14.5381 62.4275 15.0296 62.9185 15.6355 62.9185H26.1893V66.8553H22.8751C20.6641 66.8553 18.8657 68.6543 18.8657 70.8647V73.2359C18.8657 74.2447 19.6862 75.0653 20.695 75.0653H54.2217C55.2305 75.0653 56.0511 74.2447 56.0511 73.2359V70.8647C56.0511 68.6543 54.2526 66.8553 52.0416 66.8553H48.7274V65.4677H69.0196C70.2098 65.4677 71.1779 64.4995 71.1779 63.3087V62.792C73.3174 62.2953 74.9167 60.3756 74.9167 58.0879L74.9997 4.97681C75.0003 2.31319 72.8333 0.14624 70.1697 0.14624ZM41.3517 51.3107V46.0492H68.983V51.3107H41.3517ZM44.3804 43.8537V41.5443H65.9537V43.8537H44.3804ZM65.9537 53.5057V55.8157H44.3804V53.5057H65.9537ZM28.3843 62.9185H39.1561V63.3093C39.1561 64.4995 40.1243 65.4677 41.315 65.4677H46.5324V66.8553H28.3843V62.9185ZM52.0422 69.0508C53.0424 69.0508 53.8561 69.8645 53.8561 70.8647V72.8703H21.0606V70.8647C21.0606 69.8645 21.8749 69.0508 22.8751 69.0508H52.0422ZM68.983 63.2721H41.3517V58.0112H68.983V63.2721ZM72.7218 58.0879C72.7218 59.1511 72.0878 60.0672 71.1785 60.4832V57.974C71.1785 56.7838 70.2098 55.8157 69.0196 55.8157H68.1493V53.924H72.7218V58.0879ZM72.7218 51.729H71.1425C71.1648 51.6048 71.1785 46.0126 71.1785 46.0126C71.1785 44.8219 70.2098 43.8537 69.0196 43.8537H68.1493V41.5443H69.0196C70.2098 41.5443 71.1785 40.5755 71.1785 39.3853V34.0506C71.1785 32.8604 70.2098 31.8917 69.0196 31.8917H62.8197C62.2132 31.8917 61.7222 32.3832 61.7222 32.9898C61.7222 33.5957 62.2132 34.0873 62.8197 34.0873H68.983V39.3487H41.3517V34.0873H55.9899C56.5964 34.0873 57.0873 33.5957 57.0873 32.9898C57.0873 32.3832 56.5964 31.8917 55.9899 31.8917H41.315C40.1243 31.8917 39.1561 32.8604 39.1561 34.0506V39.3853C39.1561 40.5755 40.1243 41.5443 41.315 41.5443H42.1854V43.8537H41.315C40.1243 43.8537 39.1561 44.8224 39.1561 46.0126C39.1561 46.0126 39.1698 51.6048 39.1922 51.729H2.19556V15.0774H72.7218V51.729ZM72.7218 12.8818H2.27624V4.97681C2.27624 3.52398 3.45842 2.3418 4.91182 2.3418H70.0862C71.5396 2.3418 72.7218 3.52398 72.7218 4.97738V12.8818Z" fill="#EF8B54"/>
<path d="M8.09497 4.35938C6.31884 4.35938 4.87402 5.8042 4.87402 7.58033C4.87402 9.35646 6.31884 10.8019 8.09497 10.8019C9.8711 10.8019 11.3165 9.35646 11.3165 7.58033C11.3165 5.8042 9.8711 4.35938 8.09497 4.35938ZM8.09497 8.6063C7.52963 8.6063 7.06901 8.14624 7.06901 7.58033C7.06901 7.01499 7.52963 6.55436 8.09497 6.55436C8.66089 6.55436 9.12094 7.01499 9.12094 7.58033C9.12094 8.14624 8.66089 8.6063 8.09497 8.6063Z" fill="#EF8B54"/>
<path d="M16.2965 4.35938C14.5203 4.35938 13.075 5.8042 13.075 7.58033C13.075 9.35646 14.5203 10.8019 16.2965 10.8019C18.0726 10.8019 19.5174 9.35646 19.5174 7.58033C19.5174 5.8042 18.072 4.35938 16.2965 4.35938ZM16.2965 8.6063C15.7306 8.6063 15.2705 8.14624 15.2705 7.58033C15.2705 7.01499 15.7306 6.55436 16.2965 6.55436C16.8618 6.55436 17.3224 7.01499 17.3224 7.58033C17.3224 8.14624 16.8618 8.6063 16.2965 8.6063Z" fill="#EF8B54"/>
<path d="M24.4972 4.35938C22.7211 4.35938 21.2763 5.8042 21.2763 7.58033C21.2763 9.35646 22.7211 10.8019 24.4972 10.8019C26.2734 10.8019 27.7188 9.35646 27.7188 7.58033C27.7188 5.8042 26.2734 4.35938 24.4972 4.35938ZM24.4972 8.6063C23.9319 8.6063 23.4713 8.14624 23.4713 7.58033C23.4713 7.01499 23.9319 6.55436 24.4972 6.55436C25.0631 6.55436 25.5232 7.01499 25.5232 7.58033C25.5232 8.14624 25.0631 8.6063 24.4972 8.6063Z" fill="#EF8B54"/>
</g>
<defs>
<clipPath id="clip0">
<rect width="75" height="75" fill="white"/>
</clipPath>
</defs>
</svg>

<svg width="75" height="75" viewBox="0 0 75 75" fill="none" xmlns="http://www.w3.org/2000/svg"><g clip-path="url(#clip0)" fill="#EF8B54"><path d="M8.637 27.473a1.095 1.095 0 001.552 0 1.098 1.098 0 000-1.553l-2.665-2.665 2.665-2.665a1.098 1.098 0 00-1.552-1.552l-3.441 3.441a1.098 1.098 0 000 1.552l3.44 3.442zm10.893-4.218l-2.666 2.665a1.097 1.097 0 001.552 1.553l3.442-3.442a1.097 1.097 0 000-1.552l-3.442-3.442a1.097 1.097 0 10-1.551 1.553l2.664 2.665zm-7.64 4.463a1.1 1.1 0 001.423-.62l2.704-6.883a1.098 1.098 0 00-2.043-.803l-2.704 6.883a1.098 1.098 0 00.62 1.423zm-5.297 6.516h7.395a1.098 1.098 0 000-2.196H6.593a1.097 1.097 0 100 2.196zm24.426-2.196h-13a1.098 1.098 0 000 2.196h13a1.098 1.098 0 100-2.196zM6.593 38.864h3.15a1.098 1.098 0 000-2.196h-3.15a1.097 1.097 0 100 2.196zm20.41-2.196a1.097 1.097 0 100 2.196h1.918a1.098 1.098 0 100-2.196h-1.918zm-2.889 1.097c0-.605-.492-1.097-1.097-1.097h-9.422a1.097 1.097 0 100 2.196h9.422c.605 0 1.097-.492 1.097-1.099zm7.19 0c0 .607.492 1.099 1.098 1.099h3.593a1.098 1.098 0 100-2.196h-3.593c-.606 0-1.098.492-1.098 1.097zm-5.977-13.629h3.79a1.098 1.098 0 100-2.196h-3.79a1.098 1.098 0 100 2.195zm8.033 0h23.124a1.097 1.097 0 100-2.196H33.361a1.098 1.098 0 100 2.195zm19.612 2.634h-9.367a1.098 1.098 0 000 2.195h9.367a1.098 1.098 0 000-2.196zm-12.879 0h-3.22a1.097 1.097 0 100 2.195h3.22a1.097 1.097 0 100-2.196zm-14.766 2.195h7.887a1.098 1.098 0 000-2.196h-7.887a1.098 1.098 0 100 2.196zM23.03 41.259h-7.394a1.098 1.098 0 100 2.195h7.394a1.098 1.098 0 000-2.195zm-10.756 0H6.593a1.097 1.097 0 100 2.195h5.68a1.097 1.097 0 100-2.195zm24.16 0h-9.66a1.097 1.097 0 100 2.195h9.66a1.098 1.098 0 000-2.195zm13.063-5.639h-5.282a1.098 1.098 0 000 2.196h5.282a1.097 1.097 0 100-2.196zm9.166 2.196h7.456a1.098 1.098 0 100-2.196h-7.456a1.097 1.097 0 100 2.196zm-3.729-2.196h-1.709a1.098 1.098 0 100 2.196h1.71a1.097 1.097 0 100-2.196zM44.215 49.777h5.282a1.097 1.097 0 100-2.195h-5.282a1.098 1.098 0 000 2.195zm14.448 0h7.456a1.097 1.097 0 100-2.195h-7.456a1.097 1.097 0 100 2.195zm-5.437 0h1.708a1.097 1.097 0 100-2.195h-1.708a1.097 1.097 0 100 2.195zm-3.729 9.767h-5.282a1.098 1.098 0 000 2.195h5.282a1.097 1.097 0 100-2.195zm16.623 0h-7.457a1.097 1.097 0 100 2.195h7.456a1.098 1.098 0 100-2.195zm-11.186 0h-1.709a1.098 1.098 0 100 2.195h1.71a1.097 1.097 0 100-2.195z"/><path d="M70.17.146H4.83A4.837 4.837 0 000 4.977v53.11a4.837 4.837 0 004.831 4.831h4.13a1.097 1.097 0 100-2.194h-4.13a2.638 2.638 0 01-2.635-2.636v-4.164h39.99v1.892h-.871a2.16 2.16 0 00-2.159 2.159v2.748h-23.52a1.098 1.098 0 000 2.196h10.553v3.936h-3.314a4.014 4.014 0 00-4.01 4.01v2.37c0 1.01.821 1.83 1.83 1.83h33.527c1.008 0 1.83-.82 1.83-1.83v-2.37c0-2.21-1.8-4.01-4.01-4.01h-3.315v-1.387H69.02a2.16 2.16 0 002.158-2.16v-.516a4.838 4.838 0 003.739-4.704L75 4.977a4.835 4.835 0 00-4.83-4.83zM41.352 51.311v-5.262h27.631v5.262H41.352zm3.028-7.457v-2.31h21.574v2.31H44.38zm21.574 9.652v2.31H44.38v-2.31h21.574zm-37.57 9.413h10.772v.39a2.16 2.16 0 002.159 2.159h5.217v1.387H28.384v-3.937zm23.658 6.132c1 0 1.814.814 1.814 1.814v2.005H21.061v-2.005c0-1 .814-1.814 1.814-1.814h29.167zm16.941-5.779H41.352v-5.26h27.631v5.26zm3.739-5.184c0 1.063-.634 1.98-1.543 2.395v-2.509c0-1.19-.97-2.158-2.16-2.158h-.87v-1.892h4.573v4.164zm0-6.359h-1.58c.023-.124.037-5.716.037-5.716 0-1.191-.97-2.16-2.16-2.16h-.87v-2.309h.87c1.19 0 2.16-.968 2.16-2.159v-5.334c0-1.19-.97-2.16-2.16-2.16h-6.2a1.097 1.097 0 100 2.196h6.164v5.262H41.352v-5.262H55.99a1.097 1.097 0 100-2.195H41.315c-1.19 0-2.159.968-2.159 2.159v5.334c0 1.19.968 2.16 2.159 2.16h.87v2.309h-.87c-1.19 0-2.159.968-2.159 2.159 0 0 .014 5.592.036 5.716H2.196V15.077h70.526V51.73zm0-38.847H2.276V4.977a2.638 2.638 0 012.636-2.635h65.174a2.638 2.638 0 012.636 2.635v7.905z"/><path d="M8.095 4.36a3.224 3.224 0 00-3.221 3.22 3.225 3.225 0 003.221 3.222 3.226 3.226 0 003.221-3.222 3.225 3.225 0 00-3.221-3.22zm0 4.246c-.565 0-1.026-.46-1.026-1.026 0-.565.46-1.026 1.026-1.026a1.027 1.027 0 010 2.052zm8.202-4.246a3.225 3.225 0 00-3.222 3.22 3.225 3.225 0 003.222 3.222 3.225 3.225 0 003.22-3.222 3.225 3.225 0 00-3.22-3.22zm0 4.246a1.027 1.027 0 010-2.052 1.027 1.027 0 010 2.052zm8.2-4.246a3.224 3.224 0 00-3.22 3.22 3.225 3.225 0 003.22 3.222A3.226 3.226 0 0027.72 7.58a3.225 3.225 0 00-3.222-3.22zm0 4.246c-.565 0-1.026-.46-1.026-1.026 0-.565.46-1.026 1.026-1.026a1.027 1.027 0 010 2.052z"/></g><defs><clipPath id="clip0"><path fill="#fff" d="M0 0h75v75H0z"/></clipPath></defs></svg>
